X: 1
T: the Last Mile
C: Larry Unger, Michelle Levy, K. Hardman, K. Blackwood, Bob Anholt (2009)
R: jig
Z: 2019 John Chambers <jc:trillian.mit.edu>
S: PDF from Ishmael the Fiddler 2018-2-28
M: 6/8
L: 1/8
K: Em
|:\
"Em"EDE "D"FEF | "Em"GFG "D"A2A | "G"B2B B2A | "D"B2A G2F |\
"Em"EDE "D"FEF | "Em"GFG "D"A2A | "Em"B>ee efg |1 "Bm"fed "Em"BAG :|2 "Bm"fed "C"e2f ||
|:\
"Em"g2f e2d | B2A G2F | "G"GAB "Am"cBA | "Em"GAG "Bm"F2F |\
"Em"EeE dEc | "G"BcB "D"A2A | "Em"GAB "Am"cBA | "Bm"GFD "Em"E3 :|
